svg/nature/flower_2_fill.svg

<?xml version="1.0" encoding="UTF-8"?>
<svg width="24px" height="24px" viewBox="0 0 24 24" version="1.1" xmlns="http://www.w3.org/2000/svg" xmlns:xlink="http://www.w3.org/1999/xlink">
    <title>flower_2_fill</title>
    <g id="页面-1" stroke="none" stroke-width="1" fill="none" fill-rule="evenodd">
        <g id="System" transform="translate(-624.000000, -240.000000)" fill-rule="nonzero">
            <g id="flower_2_fill" transform="translate(624.000000, 240.000000)">
                 <path d="M24,0 L24,24 L0,24 L0,0 L24,0 Z M12.5934901,23.257841 L12.5819402,23.2595131 L12.5108777,23.2950439 L12.4918791,23.2987469 L12.4918791,23.2987469 L12.4767152,23.2950439 L12.4056548,23.2595131 C12.3958229,23.2563662 12.3870493,23.2590235 12.3821421,23.2649074 L12.3780323,23.275831 L12.360941,23.7031097 L12.3658947,23.7234994 L12.3769048,23.7357139 L12.4804777,23.8096931 L12.4953491,23.8136134 L12.4953491,23.8136134 L12.5071152,23.8096931 L12.6106902,23.7357139 L12.6232938,23.7196733 L12.6232938,23.7196733 L12.6266527,23.7031097 L12.609561,23.275831 C12.6075724,23.2657013 12.6010112,23.2592993 12.5934901,23.257841 L12.5934901,23.257841 Z M12.8583906,23.1452862 L12.8445485,23.1473072 L12.6598443,23.2396597 L12.6498822,23.2499052 L12.6498822,23.2499052 L12.6471943,23.2611114 L12.6650943,23.6906389 L12.6699349,23.7034178 L12.6699349,23.7034178 L12.678386,23.7104931 L12.8793402,23.8032389 C12.8914285,23.8068999 12.9022333,23.8029875 12.9078286,23.7952264 L12.9118235,23.7811639 L12.8776777,23.1665331 C12.8752882,23.1545897 12.8674102,23.1470016 12.8583906,23.1452862 L12.8583906,23.1452862 Z M12.1430473,23.1473072 C12.1332178,23.1423925 12.1221763,23.1452606 12.1156365,23.1525954 L12.1099173,23.1665331 L12.0757714,23.7811639 C12.0751323,23.7926639 12.0828099,23.8018602 12.0926481,23.8045676 L12.108256,23.8032389 L12.3092106,23.7104931 L12.3186497,23.7024347 L12.3186497,23.7024347 L12.3225043,23.6906389 L12.340401,23.2611114 L12.337245,23.2485176 L12.337245,23.2485176 L12.3277531,23.2396597 L12.1430473,23.1473072 Z" id="MingCute" fill-rule="nonzero"></path>
                <path d="M10.2405,3.2087 C10.901,3.47732 11.5234,3.90704 12.0592,4.46335 C12.6092,3.93285 13.224,3.51734 13.8646,3.25218 C14.8617,2.83954 16.0059,2.76582 17,3.33978 C17.9942,3.91374 18.5025,4.94158 18.6436,6.01136 C18.7343,6.6988 18.6818,7.43896 18.4974,8.18057 C19.2471,8.36644 19.9304,8.69058 20.4933,9.12826 C21.3725,9.81194 22,10.8157 22,12.0001 C22,13.1781 21.3792,14.1776 20.5074,14.8609 C19.9623,15.2881 19.303,15.6082 18.5794,15.7986 C18.7763,16.5205 18.8287,17.2515 18.7313,17.9372 C18.5754,19.0338 18.0202,20.0713 17.0001,20.6602 C15.9743,21.2525 14.7913,21.2108 13.7596,20.7913 C13.0991,20.5226 12.4768,20.0929 11.941,19.5366 C11.3909,20.0672 10.7762,20.4827 10.1355,20.7479 C9.13845,21.1605 7.99416,21.2342 7.00003,20.6603 C6.00591,20.0863 5.49762,19.0585 5.35647,17.9888 C5.26576,17.3013 5.31823,16.5612 5.50264,15.8196 C4.75297,15.6337 4.06963,15.3096 3.50676,14.8719 C2.62755,14.1882 2,13.1845 2,12.0001 C2,10.8221 2.6209,9.82253 3.49268,9.13924 C4.0378,8.71198 4.6971,8.39187 5.42074,8.20148 C5.2238,7.47959 5.17137,6.74856 5.26883,6.06284 C5.42469,4.96621 5.97986,3.92872 7.00005,3.33972 C8.0258,2.7475 9.20882,2.78912 10.2405,3.2087 Z M12,8 C9.79086,8 8,9.79086 8,12 C8,14.2091 9.79086,16 12,16 C14.2091,16 16,14.2091 16,12 C16,9.79086 14.2091,8 12,8 Z M12,10 C13.1046,10 14,10.8954 14,12 C14,13.1046 13.1046,14 12,14 C10.8954,14 10,13.1046 10,12 C10,10.8954 10.8954,10 12,10 Z" id="形状" fill="#09244B"></path>
            </g>
        </g>
    </g>
</svg>

<svg xmlns="http://www.w3.org/2000/svg" width="24" height="24"><g fill="none" fill-rule="nonzero"><path d="M24 0v24H0V0h24ZM12.593 23.258l-.011.002-.071.035-.02.004-.014-.004-.071-.035c-.01-.004-.019-.001-.024.005l-.004.01-.017.428.005.02.01.013.104.074.015.004.012-.004.104-.074.012-.016.004-.017-.017-.427c-.002-.01-.009-.017-.017-.018Zm.265-.113-.013.002-.185.093-.01.01-.003.011.018.43.005.012.008.007.201.093c.012.004.023 0 .029-.008l.004-.014-.034-.614c-.003-.012-.01-.02-.02-.022Zm-.715.002a.023.023 0 0 0-.027.006l-.006.014-.034.614c0 .012.007.02.017.024l.015-.002.201-.093.01-.008.004-.011.017-.43-.003-.012-.01-.01-.184-.092Z"/><path fill="#09244B" d="M10.24 3.209c.661.268 1.283.698 1.82 1.254a5.865 5.865 0 0 1 1.805-1.21c.997-.413 2.14-.487 3.135.087.994.574 1.503 1.602 1.644 2.671.09.688.038 1.428-.147 2.17.75.185 1.433.51 1.996.947C21.373 9.812 22 10.816 22 12c0 1.178-.62 2.178-1.493 2.86a5.317 5.317 0 0 1-1.928.939c.197.721.25 1.453.152 2.138-.156 1.097-.71 2.134-1.73 2.723-1.027.593-2.21.55-3.241.131a5.346 5.346 0 0 1-1.819-1.254c-.55.53-1.165.946-1.806 1.21-.997.413-2.14.487-3.135-.087-.994-.574-1.502-1.602-1.644-2.671a5.864 5.864 0 0 1 .147-2.17 5.346 5.346 0 0 1-1.996-.947C2.627 14.188 2 13.185 2 12c0-1.178.62-2.177 1.493-2.86A5.316 5.316 0 0 1 5.42 8.2a5.316 5.316 0 0 1-.152-2.138C5.425 4.966 5.979 3.929 7 3.34c1.026-.592 2.209-.55 3.24-.131ZM12 8a4 4 0 1 0 0 8 4 4 0 0 0 0-8Zm0 2a2 2 0 1 1 0 4 2 2 0 0 1 0-4Z"/></g></svg>
